X:74
T:Miss Mahany's Favourite
R:polka
Z:id:hn-polka-74
M:2/4
L:1/8
K:D
d2 B/c/d|AF Dd|ec AB/c/|de fe|d2 B/c/d|AF Dd|ec AB/c/|1 d2 A2:|2 d2 d2||
|:f>e f/g/a|bg ed|c/B/A Bc|de fe|f>e f/g/a|bg ed|c/B/A Bc|1 d2 d2:|2 d2 A2||
<end>
<start>
